X: 3
T: Gallagher's Frolics
R: jig
M: 6/8
L: 1/8
K: Edor
D|:E3 GFE|BAB dBA|BdB BAB|GB/A/G AFD|
|E3 GFE| BAB dBA|BAG FG/A/F|1 GED E2 D:|2 GEE E2 B||
|:e2f gfe|g2a bge|dB/c/d fed|fad fed|
|e2f gfe|dg/f/e dBA|BAG FG/A/F|1 GED E2B:|2 GED E2 D||


Tune 160	Setting 160

